!!!!SEGMENT: pl-kk--kk-i-6--001_anonim--salve-sancta-parens.krn
!!!cenid: 16xx:956
!!!COM: Anonim
!!!COM-rismid: pe30004985
!!!CDT:
!!!CNT:
!!!OTL: Salve sancta parens
!!!PDT:
!!!AGN: Sacred
!!!SMS-siglum: PL-Kk
!!!SMS-shelfmark: Kk.I.6
!!!SMS-shelfwork: 001 W
!!!SMS-variant:
!!!SMS-altvar:
!!!NIFC-rismid: 1001135549
!!!URL-scan: http://repozytorium.nifc.pl/skany/pl-kk-nut--i-6
!!!ONB-nifc: UWAGA: C (skan 0002-0003, s. 1-2), T (skan 0098-0099, s. 1-3), B (skan 0210-0211, s. 1-3). Następny utwór: Benedicta et venerabilis
!!!key:
**kern	**text	**kern	**text	**kern	**text
*part3	*part3	*part2	*part2	*part1	*part1
*staff3	*staff3	*staff2	*staff2	*staff1	*staff1
*group1	*	*group1	*	*group1	*
*Iempty	*	*Itenor	*	*Ivox	*
*I"Baſsus.	*	*I"Tenor.	*	*I"Cantus.	*
*I'B	*	*I'T	*	*I'S	*
*clefF4	*	*clefC4	*	*clefC4	*
*k[]	*	*k[]	*	*k[]	*
*F:	*	*F:	*	*F:	*
*M2/1	*	*M2/1	*	*M2/1	*
*met(C|)	*	*met(C|)	*	*met(C|)	*
=1-	=1-	=1-	=1-	=1-	=1-
*2\right	*	*	*	*lig	*
2.E\	SAl-	0r	.	1E	SAl-
4D/	.	.	.	.	.
2C/	.	.	.	1G	.
2BB/	.	.	.	.	.
*	*	*	*	*Xlig	*
=2-	=2-	=2-	=2-	=2-	=2-
*	*	*2\right	*	*lig	*
0AA	-ve	2.e\	SAl-	1A	.
!	!	!LO:TX:t=P:problem=kreska pseudotaktowa	!	!	!
.	.	4d\	.	.	.
.	.	4c\	.	1c	.
.	.	4B\	.	.	.
.	.	4A/	.	.	.
!	!	!LO:TX:t=P:problem=kreska pseudotaktowa	!	!	!
.	.	4G/	.	.	.
*	*	*	*	*Xlig	*
=3-	=3-	=3-	=3-	=3-	=3-
2.D/	San-	2.F/	.	1A,<	-ve
!	!	!LO:TX:t=P:problem=kreska pseudotaktowa	!	!	!
4E\	.	4G/	.	.	.
4F\	.	4A/	.	1A	San-
4G\	.	4B\	.	.	.
!	!	!LO:TX:t=P:problem=kreska pseudotaktowa	!	!	!
2A\	.	2c\	.	.	.
=4-	=4-	=4-	=4-	=4-	=4-
*	*	*	*	*lig	*
1F	-cta	4d\	.	1A	-cta
.	.	4c\	.	.	.
.	.	4B\	.	.	.
!	!	!LO:TX:t=P:problem=kreska pseudotaktowa	!	!	!
.	.	4A/	.	.	.
*custos:AA	*	*custos:A	*	*	*
!	!	!LO:TX:t=P:problem=kreska pseudotaktowa	!	!	!
1E	pa-	1B	.	1G,<	.
*	*	*	*	*Xlig	*
!LO:LB:g=original	!	!LO:LB:g=original	!	!	!
=5-	=5-	=5-	=5-	=5-	=5-
*	*	*	*	*lig	*
2AA/	-rens	2A/	-ve	1A	pa-
*	*ij	*	*	*	*
!	!	!LO:TX:t=P:problem=kreska pseudotaktowa	!	!	!
1A	SAl-	2F/	San-	.	.
.	.	2E/	-cta	1B	.
!	!	!LO:TX:t=P:problem=kreska pseudotaktowa	!	!	!
2G\	-ve	2E/	pa-	.	.
*	*	*	*	*Xlig	*
=6-	=6-	=6-	=6-	=6-	=6-
*	*	*	*	*lig	*
!	!	!LO:TX:t=P:problem=kreska pseudotaktowa	!	!	!
2A\	San-	1A	-rens	1c	.
2AA/	-cta	.	.	.	.
2C/	pa-	2r	.	1A	.
!	!	!LO:TX:t=P:problem=kreska pseudotaktowa	!	!	!
*	*	*	*ij	*	*
2D/	.	2d\	Sal-	.	.
*	*	*	*	*Xlig	*
=7-	=7-	=7-	=7-	=7-	=7-
1E	.	2c\	-ve	1G	.
!	!	!LO:TX:t=P:problem=kreska pseudotaktowa	!	!	!
.	.	2B\	.	.	.
*	*	*	*	*custos:G	*
1.F	.	4A/	San-	1A,<	-rens
.	.	4B\	.	.	.
.	.	4c\	.	.	.
!	!	!LO:TX:t=P:problem=kreska pseudotaktowa	!	!	!
.	.	4A/	.	.	.
!	!	!	!	!LO:LB:g=original	!
=8-	=8-	=8-	=8-	=8-	=8-
*	*	*	*	*lig	*
.	.	2B\	.	1G	e-
!	!	!LO:TX:t=P:problem=kreska pseudotaktowa	!	!	!
2E\	.	2c\	-cta	.	.
!	!	!LO:TX:t=P:problem=kreska pseudotaktowa	!	!	!
1D	-rens	1d	pa-	1A	.
*	*Xij	*	*	*Xlig	*
=9-	=9-	=9-	=9-	=9-	=9-
*	*	*	*	*lig	*
1C	e-	2G,</	-rens	1c	-ni-
*	*	*	*Xij	*	*
.	.	1c	e-	.	.
1G	-ni-	.	.	1d	.
!	!	!LO:TX:t=P:problem=kreska pseudotaktowa	!	!	!
.	.	2B\	-ni-	.	.
*	*	*	*	*Xlig	*
=10-	=10-	=10-	=10-	=10-	=10-
*custos:F	*	*	*	*	*
0C	-xa	2c\	-xa	1c,<	-xa
*	*	*custos:G	*	*	*
!	!	!LO:TX:t=P:problem=kreska pseudotaktowa	!	!	!
.	.	2G/	pu-	.	.
!	!	!LO:LB:g=original	!	!	!
.	.	2.G/	-er-	1c	pu-
!	!	!LO:TX:t=P:problem=kreska pseudotaktowa	!	!	!
.	.	4G/	-pe-	.	.
!LO:LB:g=original	!	!	!	!	!
=11-	=11-	=11-	=11-	=11-	=11-
2r	.	1.A	-ra	1c	-er-
2.F\	pu-	.	.	.	.
.	.	.	.	1c	-pe-
4G\	.	.	.	.	.
2.A\	.	2.F/	Re-	.	.
=12-	=12-	=12-	=12-	=12-	=12-
*	*	*	*	*lig	*
.	.	.	.	1c	-ra
4B\	.	4G/	.	.	.
!	!	!LO:TX:t=P:problem=kreska pseudotaktowa	!	!	!
1c	.	2A/	.	.	.
!	!	!LO:TX:t=P:problem=kreska pseudotaktowa	!	!	!
.	.	1G	.	1d	.
2B\	-er-	.	.	.	.
*	*	*	*	*Xlig	*
=13-	=13-	=13-	=13-	=13-	=13-
4c\	-pe-	2C/	-gem	1c,<	.
4B\	.	.	.	.	.
!	!	!LO:TX:t=P:problem=kreska pseudotaktowa	!	!	!
4A\	.	2c\	pu-	.	.
4G\	.	.	.	.	.
*	*	*	*	*lig	*
2F,<\	-ra	2f\	-er-	1c	Re-
!	!	!LO:TX:t=P:problem=kreska pseudotaktowa	!	!	!
2F\	pu-	2f\	-pe-	.	.
=14-	=14-	=14-	=14-	=14-	=14-
1G	-er-	2e\	-ra	1B	.
!	!	!LO:TX:t=P:problem=kreska pseudotaktowa	!	!	!
.	.	2d\	Re-	.	.
*	*	*	*	*Xlig	*
*	*	*	*	*lig	*
2A\	-pe-	4c\	.	1A	.
.	.	4B\	.	.	.
2F\	-ra	1A\	.	.	.
=15-	=15-	=15-	=15-	=15-	=15-
1E	Re-	.	.	1B	.
!	!	!LO:TX:t=P:problem=kreska pseudotaktowa	!	!	!
.	.	2G/	.	.	.
*	*	*	*	*Xlig	*
*	*	*	*	*lig	*
*custos:D	*	*	*	*	*
!	!	!LO:TX:t=P:problem=kreska pseudotaktowa	!	!	!
1AA	-gem	1A	-gem	1c	.
!LO:LB:g=original	!	!	!	!	!
=16-	=16-	=16-	=16-	=16-	=16-
*	*	*	*	*custos:A	*
1D	qui	2r	.	1A	.
.	.	1F	qui	.	.
*	*	*	*	*Xlig	*
!	!	!	!	!LO:LB:g=original	!
2D/	Cae-	.	.	1A	-gem
4C/	.	4E/	Cae-	.	.
*	*	*custos:E	*	*	*
!	!	!LO:TX:t=P:problem=kreska pseudotaktowa	!	!	!
4BB/	.	4D/	.	.	.
!	!	!LO:LB:g=original	!	!	!
=17-	=17-	=17-	=17-	=17-	=17-
2AA/	lum	2E/	-lum	1c	qui
!	!	!LO:TX:t=P:problem=kreska pseudotaktowa	!	!	!
2AA/	ter-	2F/	ter-	.	.
*	*	*	*	*lig	*
!	!	!LO:TX:t=P:problem=kreska pseudotaktowa	!	!	!
1GG	-ram-	0G	-ram	1B	Cae-
=18-	=18-	=18-	=18-	=18-	=18-
1C	-q(ue)	.	.	1c	.
*	*	*	*	*Xlig	*
1D	re-	2rF	.	1A	-lum
!	!	!LO:TX:t=P:problem=kreska pseudotaktowa	!	!	!
.	.	2F/	qui	.	.
=19-	=19-	=19-	=19-	=19-	=19-
*	*	*	*	*lig	*
2AA/	-git	2E/	Cae-	1A	ter-
!	!	!LO:TX:t=P:problem=kreska pseudotaktowa	!	!	!
1A	qui	2F/	-lum	.	.
!	!	!LO:TX:t=P:problem=kreska pseudotaktowa	!	!	!
.	.	1E	ter-	1B	.
2G\	Cae-	.	.	.	.
*	*	*	*	*Xlig	*
=20-	=20-	=20-	=20-	=20-	=20-
*	*	*	*	*lig	*
2F\	-lum	2A/	-ram-	1c	-ram-
!	!	!LO:TX:t=P:problem=kreska pseudotaktowa	!	!	!
2E\	ter-	2G/	-q(ue)	.	.
!	!	!LO:TX:t=P:problem=kreska pseudotaktowa	!	!	!
1D	-ram	1F	re-	1A	.
*	*	*	*	*Xlig	*
=21-	=21-	=21-	=21-	=21-	=21-
!	!	!LO:TX:t=P:problem=kreska pseudotaktowa	!	!	!
*	*	*	*	*lig	*
1C	qui	1E	-git	1c	.
2D/	Cae-	2rF	.	1A	.
*custos:BB	*	*	*	*	*
!	!	!LO:TX:t=P:problem=kreska pseudotaktowa	!	!	!
2C/	-lum	2A/	qui	.	.
*	*	*	*	*Xlig	*
!LO:LB:g=original	!	!	!	!	!
=22-	=22-	=22-	=22-	=22-	=22-
*	*	*	*	*lig	*
!	!	!LO:TX:t=P:problem=kreska pseudotaktowa	!	!	!
1BB	ter-	1B	Cae-	1G	-què
2AA/	-ram	2c#X\	-lum	1A	.
1D\	qui	1d\	ter-	.	.
*	*	*	*	*Xlig	*
=23-	=23-	=23-	=23-	=23-	=23-
*	*	*	*	*lig	*
.	.	.	.	1A	re-
1F	Cae-	4c#\	.	.	.
!	!	!LO:TX:t=P:problem=kreska pseudotaktowa	!	!	!
.	.	4B\	.	.	.
.	.	2A/	.	1c	.
2C/	-lum	1G/	-ram-	.	.
*	*	*	*	*Xlig	*
=24-	=24-	=24-	=24-	=24-	=24-
*	*	*	*	*lig	*
1D	ter-	.	.	1A	.
*	*	*custos:G	*	*	*
!	!	!LO:TX:t=P:problem=kreska pseudotaktowa	!	!	!
.	.	2F/	-q(ue)	.	.
!	!	!LO:LB:g=original	!	!	!
1E	-ram-	4G/	re-	1G	.
.	.	4A/	.	.	.
.	.	4B\	.	.	.
!	!	!LO:TX:t=P:problem=kreska pseudotaktowa	!	!	!
.	.	4cny\	.	.	.
*	*	*	*	*Xlig	*
=25-	=25-	=25-	=25-	=25-	=25-
*	*	*	*	*custos:A	*
1.D	-q(ue)	1.d	.	1A	.
*	*	*	*	*lig	*
!	!	!	!	!LO:LB:g=original	!
.	.	.	.	1A	-git
!	!	!LO:TX:t=P:problem=kreska pseudotaktowa	!	!	!
2D/	re-	2d\	.	.	.
=26-	=26-	=26-	=26-	=26-	=26-
!	!	!LO:TX:t=P:problem=kreska pseudotaktowa	!	!	!
1GG	-git	1B	-git	1G,<	.
*	*	*	*	*Xlig	*
*	*	*	*	*lig	*
2rBB	.	2r	.	1A	in
!	!	!LO:TX:t=P:problem=kreska pseudotaktowa	!	!	!
2C/	in	2c\	in	.	.
=27-	=27-	=27-	=27-	=27-	=27-
2F\	Sae-	2c\	Sae-	1B	.
!	!	!LO:TX:t=P:problem=kreska pseudotaktowa	!	!	!
2D/	-cu-	2d\	-cu-	.	.
*	*	*	*	*Xlig	*
!	!	!LO:TX:t=P:problem=kreska pseudotaktowa	!	!	!
*	*	*	*	*lig	*
1A	-la	1e	-la	1c	Sae-
=28-	=28-	=28-	=28-	=28-	=28-
1r	.	2f\	Sae-	1d	.
.	.	1d	-cu-	.	.
*	*ij	*	*	*Xlig	*
0AA	in	.	.	1A	-cu-
.	.	4c#X\	-lo-	.	.
!	!	!LO:TX:t=P:problem=kreska pseudotaktowa	!	!	!
.	.	4B\	.	.	.
=29-	=29-	=29-	=29-	=29-	=29-
.	.	2c#X\	.	1A,<	-la
!	!	!LO:TX:t=P:problem=kreska pseudotaktowa	!	!	!
.	.	2c#\	.	.	.
!	!	!LO:TX:t=P:problem=kreska pseudotaktowa	!	!	!
*	*	*	*	*lig	*
2D/	Sae-	1d	-rum	1A	Sae-
*custos:GG	*	*	*	*	*
2D/	-cu-	.	.	.	.
!LO:LB:g=original	!	!	!	!	!
=30-	=30-	=30-	=30-	=30-	=30-
2GG/	-la	2r	.	1B	.
*	*Xij	*	*	*	*
*	*	*custos:A	*	*	*
!	!	!LO:TX:t=P:problem=kreska pseudotaktowa	!	!	!
2G\	Sae-	2G/	in	.	.
*	*	*	*	*Xlig	*
*	*	*	*	*lig	*
!	!	!LO:LB:g=original	!	!	!
2F\	-cu-	2A/	Sae-	1c	.
!	!	!LO:TX:t=P:problem=kreska pseudotaktowa	!	!	!
2E\	-lo-	2G/	-cu-	.	.
=31-	=31-	=31-	=31-	=31-	=31-
2D/	-rum	2.F/	-la	1d	.
2D/	in	.	.	.	.
!	!	!LO:TX:t=P:problem=kreska pseudotaktowa	!	!	!
.	.	4G/	.	.	.
*	*	*	*	*Xlig	*
2F\	Sae-	2A/	.	1d	-cu-
!	!	!LO:TX:t=P:problem=kreska pseudotaktowa	!	!	!
2G\	-cu-	2B\	.	.	.
=32-	=32-	=32-	=32-	=32-	=32-
*	*	*	*	*lig	*
2C/	-la	2cny\	.	1c	-lo-
!	!	!LO:TX:t=P:problem=kreska pseudotaktowa	!	!	!
2E\	Sae-	2G/	Sae-	.	.
2D/	-cu-	2A/	-cu-	1d	.
!	!	!LO:TX:t=P:problem=kreska pseudotaktowa	!	!	!
2BB/	-lo-	2B\	-lo-	.	.
*	*	*	*	*Xlig	*
=33-	=33-	=33-	=33-	=33-	=33-
*	*	*	*	*lig	*
4AA/	-rum	2c\	-rum	1c	.
4BB/	.	.	.	.	.
4C/	.	1A	Sae-	.	.
4D/	.	.	.	.	.
2E\	.	.	.	1B	.
!	!	!LO:TX:t=P:problem=kreska pseudotaktowa	!	!	!
2E\	in	2G/	-cu-	.	.
*	*	*	*	*Xlig	*
=34-	=34-	=34-	=34-	=34-	=34-
*	*	*	*	*lig	*
1F	Sae-	4A/	-lo-	1A	.
.	.	4B\	.	.	.
.	.	4c\	.	.	.
!	!	!LO:TX:t=P:problem=kreska pseudotaktowa	!	!	!
.	.	4d\	.	.	.
*custos:AA	*	*	*	*	*
1E	-cu-	2e\	rum	1B	.
!	!	!LO:TX:t=P:problem=kreska pseudotaktowa	!	!	!
.	.	2e\	in	.	.
*	*	*	*	*Xlig	*
!LO:PB:g=original	!	!	!	!	!
=35-	=35-	=35-	=35-	=35-	=35-
*	*	*	*	*lig	*
1AA	-la	2e\	Sae-	1c	.
*	*	*custos:c	*	*	*
!	!	!LO:TX:t=P:problem=kreska pseudotaktowa	!	!	!
.	.	2e\	-cu-	.	.
!	!	!LO:PB:g=original	!	!	!
1.F	Sae-	2c\	-la	[1cl;<	-rum.
.	.	1A\	Sae-	.	.
*	*	*	*	*Xlig	*
=36-	=36-	=36-	=36-	=36-	=36-
.	.	.	.	0c_	.
2E\	-cu-	2G/	-cu-	.	.
2D/	-lo-	4F/	-lo-	.	.
.	.	4D/	.	.	.
2C/	-rum	2E/	.	.	.
=37-	=37-	=37-	=37-	=37-	=37-
1D	A-	1F	.	0c]	.
1AAl;;	-men.	1El;;	-rum	.	.
!LO:LB:g=original	!	!LO:LB:g=original	!	!LO:LB:g=original	!
=38||-	=38||-	=38||-	=38||-	=38||-	=38||-
*M2/1	*	*M2/1	*	*M2/1	*
*met(C|)	*	*met(C|)	*	*met(C|)	*
!	!	!LO:TX:a:t=Versus.	!	!LO:TX:a:t=Vers(us).	!
1.E	E-	0r	.	1G	E-
.	.	.	.	1A	-ru-
2D/	-ru-	.	.	.	.
=39-	=39-	=39-	=39-	=39-	=39-
1C	-cta-	1G	E-	1c	-cta-
1AA	-vit	1A	-ru-	1c,<	-vit
=40-	=40-	=40-	=40-	=40-	=40-
2.A\	Cor	2c\	-cta-	1c,<	Cor
.	.	2A/	-vit	.	.
4G\	.	.	.	.	.
2F\	me-	2A/	cor	1c	me-
2E\	-um	2G/	me-	.	.
=41-	=41-	=41-	=41-	=41-	=41-
2.F\	Ver-	1A	-um	1c,<	-um
4G\	.	.	.	.	.
4A\	.	2r	.	1c	Ver-
4B\	.	.	.	.	.
2c\	bum	1c\	Ver-	.	.
=42-	=42-	=42-	=42-	=42-	=42-
0G	bo-	.	.	1d	-bum
.	.	4B\	.	.	.
.	.	4A/	.	.	.
.	.	2B\	-bum	1d	bo-
.	.	2B\	bo-	.	.
=43-	=43-	=43-	=43-	=43-	=43-
1C	-num	2c\	-num	1c,<	-num
.	.	2e\	di-	.	.
1.F	di-	1.f	-co	1A	di-
=44-	=44-	=44-	=44-	=44-	=44-
.	.	.	.	1c	-co
*custos:F	*	*custos:f	*	*	*
2F\	-co	2f\	e-	.	.
!LO:LB:g=original	!	!LO:LB:g=original	!	!	!
1F	e-	1f	-go	1c	e-
=45-	=45-	=45-	=45-	=45-	=45-
*	*	*	*	*custos:c	*
1C	-go	2rc	.	1c	-go
.	.	2e\	di-	.	.
!	!	!	!	!LO:LB:g=original	!
2r	.	2c\	-co	1c	o-
1A\	o-	2A/	e-	.	.
=46-	=46-	=46-	=46-	=46-	=46-
.	.	2e\	-go	1c	-pe-
2A\	-pe-	2.A/	o-	.	.
1D	-ra	.	.	1d,<	-ra
.	.	4A/	-pe-	.	.
.	.	2A/	-ra	.	.
=47-	=47-	=47-	=47-	=47-	=47-
*	*	*	*	*lig	*
2.F\	me-	2.A/	me-	1c	me-
4G\	.	4B\	.	.	.
2A\	.	2c\	a	1A	.
2F\	.	2A/	Re-	.	.
*	*	*	*	*Xlig	*
=48-	=48-	=48-	=48-	=48-	=48-
1A	-a	1e	-gi	1c,<	-a
*	*	*	*	*lig	*
2.G\	Re-	2rc	.	1B	Re-
*	*	*	*ij	*	*
.	.	2.d\	o-	.	.
4F\	.	.	.	.	.
=49-	=49-	=49-	=49-	=49-	=49-
2E\	.	.	.	1G	.
.	.	4d\	-pe-	.	.
2E\	-gi	2c\	-ra	.	.
*	*	*	*	*Xlig	*
*	*ij	*	*	*lig	*
2.D/	Re-	2d\	me-	1A	.
.	.	1A\	-a	.	.
4C/	.	.	.	.	.
=50-	=50-	=50-	=50-	=50-	=50-
2BB/	.	.	.	1B	.
*	*	*custos:A	*	*	*
2BB/	.	2G/	Re-	.	.
*	*	*	*	*Xlig	*
*	*	*	*	*lig	*
*custos:D	*	*	*	*	*
!	!	!LO:LB:g=original	!	!	!
1AA	-gi	1A	-gi	1c	.
*	*Xij	*	*Xij	*	*
!LO:LB:g=original	!	!	!	!	!
=51-	=51-	=51-	=51-	=51-	=51-
1.D	di-	1.d	di-	[0Al;;	-gi.
2C/	-co	2e\	-co	.	.
*	*	*	*	*Xlig	*
=52-	=52-	=52-	=52-	=52-	=52-
2D/	e-	2f\	e-	0A_	.
2AA/	-go	2e\	-go	.	.
2.A\	o-	2.c#X\	o-	.	.
4G\	-pe-	4c#\	-pe-	.	.
=53-	=53-	=53-	=53-	=53-	=53-
2F\	-ra	1c#X	-ra	0A_	.
2E\	.	.	.	.	.
2D/	me-	2f\	me-	.	.
2C/	-a	2e\	-a	.	.
=54-	=54-	=54-	=54-	=54-	=54-
0D	Re-	1.d	Re-	0A_	.
.	.	4c#X\	.	.	.
.	.	4B\	.	.	.
=55-	=55-	=55-	=55-	=55-	=55-
0AAl;;	-gi.	0c#Xl;;	-gi	0A]	.
!LO:LB:g=original	!	!LO:LB:g=original	!	!LO:PB:g=original	!
=56||-	=56||-	=56||-	=56||-	=56||-	=56||-
*M2/1	*	*M2/1	*	*M2/1	*
*met(C|)	*	*met(C|)	*	*met(C|)	*
1E	Glo-	1cny	Glo-	1G	Glo-
1D	-ri-	2d\	-ri-	1A	-ri-
.	.	2d\	-a	.	.
=57-	=57-	=57-	=57-	=57-	=57-
1C	-a	4e\	Pa-	1c,<	-a
.	.	4d\	.	.	.
.	.	4c\	.	.	.
.	.	4B\	.	.	.
1F	Pa-	1A	.	1c	Pa-
=58-	=58-	=58-	=58-	=58-	=58-
0.C	-tri	2G,</	-tri	1c,<	-tri
.	.	2G/	et	.	.
.	.	4E/	fi-	1c,<	et
.	.	4D/	.	.	.
.	.	4E/	.	.	.
.	.	4F/	.	.	.
=59-	=59-	=59-	=59-	=59-	=59-
.	.	2G/	.	1c	Fi-
.	.	2G/	-li-	.	.
2r	.	2C/	-o	1c	-li-
2C/	et	2G/	et	.	.
=60-	=60-	=60-	=60-	=60-	=60-
4AA/	fi-	2.A/	Fi-	1c,<	-o
4GG/	.	.	.	.	.
4AA/	.	.	.	.	.
*	*	*custos:G	*	*	*
4BB/	.	4A/	-li-	.	.
!	!	!LO:LB:g=original	!	!	!
2C/	.	2G/	-o	1c,<	et
2C/	-li-	2c\	et	.	.
=61-	=61-	=61-	=61-	=61-	=61-
1FF	-o	4A/	Spi-	1c	Spi-
.	.	4G/	.	.	.
.	.	4A/	.	.	.
.	.	4B\	.	.	.
2rBB	.	2c\	-ri-	1c	-ri-
2F\	et	2A/	-tu-	.	.
=62-	=62-	=62-	=62-	=62-	=62-
2E\	Spi-	2G/	-i	1c	-tu-
*custos:G	*	*	*	*	*
2A\	-ri-	1c	San-	.	.
!LO:LB:g=original	!	!	!	!	!
2G\	-tu-	.	.	1d,<	-i
2GG/	-i	4B\	.	.	.
.	.	4A/	.	.	.
=63-	=63-	=63-	=63-	=63-	=63-
1G	San-	1B	.	1d	San-
*	*	*	*	*custos:A	*
1C	-cto	2c\	.	1c,<	-cto
.	.	2G/	-cto	.	.
!	!	!	!	!LO:LB:g=original	!
=64-	=64-	=64-	=64-	=64-	=64-
1D	Si-	2rF	.	1A	Si-
.	.	1F	Si-	.	.
1C	-cut	.	.	1c,<	-cut
.	.	2G/	-cut	.	.
=65-	=65-	=65-	=65-	=65-	=65-
1F	e-	1A	e-	1c	e-
*	*	*custos:C	*	*	*
1C	-rat	1G	-rat	1c,<	-rat
!	!	!LO:PB:g=original	!	!	!
=66-	=66-	=66-	=66-	=66-	=66-
1r	.	2.C/	in	1c,<	in
.	.	4D/	.	.	.
1.C	in	2E/	.	1c	prin-
.	.	2F/	.	.	.
=67-	=67-	=67-	=67-	=67-	=67-
.	.	2G/	prin-	1c	-ci-
2C/	prin-	1F	-ci-	.	.
2C/	-ci-	.	.	1c	-pi-
2C/	-pi-	2E/	-pi-	.	.
=68-	=68-	=68-	=68-	=68-	=68-
2FF/	-o	4F/	.	1c,<	-o
.	.	4G/	.	.	.
2F\	et	2A/	-o	.	.
1G	nunc	2r	.	1B	et
.	.	2.e\	et	.	.
=69-	=69-	=69-	=69-	=69-	=69-
1A	et	.	.	1c	nunc
.	.	4d\	.	.	.
.	.	1c	nunc	.	.
!LO:PB:g=original	!	!	!	!	!
0G	Sem-	.	.	1d	et
.	.	4B\	.	.	.
.	.	4A/	.	.	.
=70-	=70-	=70-	=70-	=70-	=70-
.	.	2B\	.	1d	Sem-
.	.	2B\	et	.	.
1C	-per	2c\	Sem-	1c,<	-per
*	*	*custos:F	*	*	*
.	.	2G/	-per	.	.
!	!	!LO:LB:g=original	!	!	!
=71-	=71-	=71-	=71-	=71-	=71-
1D	et	1F	et	1A,<	et
1C	in	1G	in	1c,<	in
=72-	=72-	=72-	=72-	=72-	=72-
1.F	Sae-	2A/	Sae-	1c	Sae-
.	.	2A/	-cu-	.	.
*	*	*	*	*custos:c	*
.	.	1A	-la	1c	-cu-
2F\	-cu-	.	.	.	.
!	!	!	!	!LO:LB:g=original	!
=73-	=73-	=73-	=73-	=73-	=73-
1C	-la	2c\	Sae-	1c,<	-la
.	.	4G/	-cu-	.	.
.	.	4A/	.	.	.
2G\	Sae-	4B\	.	1d	Sae-
.	.	4c\	.	.	.
2D/	-cu-	2d\	.	.	.
=74-	=74-	=74-	=74-	=74-	=74-
2.F\	-lo-	2.A/	-lo-	1c	-cu-
4G\	.	4B\	.	.	.
2A\	.	2c#X\	-rum	1A	-lo-
2D/	-rum	2d\	A-	.	.
=75-	=75-	=75-	=75-	=75-	=75-
2E\	A-	2G/	-men	1c,<	-rum
2F\	-men	2A/	Sae-	.	.
*	*	*	*	*lig	*
2.G\	Sae-	2B\	-cu-	1B	A-
.	.	1d\	-lo-	.	.
*custos:E	*	*	*	*	*
4F\	-cu-	.	.	.	.
!LO:LB:g=original	!	!	!	!	!
=76-	=76-	=76-	=76-	=76-	=76-
2E\	-lo-	.	.	1G	.
*	*	*custos:d	*	*	*
2E\	-rum	2cny\	-rum	.	.
*	*	*	*	*Xlig	*
*	*	*	*	*lig	*
!	!	!LO:LB:g=original	!	!	!
2D/	A-	2d\	A-	1A	.
2F\	.	1A\	.	.	.
=77-	=77-	=77-	=77-	=77-	=77-
1E	.	.	.	1B	.
.	.	2G/	.	.	.
*	*	*	*	*Xlig	*
0AA	-men	1A	-men	1c	.
=78-	=78-	=78-	=78-	=78-	=78-
*	*	*	*ij	*	*
.	.	2.e\	A-	[0Al;;	-men.
.	.	4d\	.	.	.
*	*ij	*	*	*	*
2.A\	A-	2.c\	.	.	.
4G\	.	4B\	.	.	.
=79-	=79-	=79-	=79-	=79-	=79-
2F\	.	1A	-men	0A_	.
2E\	.	.	.	.	.
2D/	.	2r	.	.	.
2C/	.	2c\	A-	.	.
=80-	=80-	=80-	=80-	=80-	=80-
0D	.	2A/	.	0A_	.
.	.	1d	.	.	.
.	.	4c#X\	.	.	.
.	.	4B\	.	.	.
=81-	=81-	=81-	=81-	=81-	=81-
!LO:TX:b:t=Graduale.	!	!LO:TX:b:t=Gradual	!	!LO:TX:b:t=Graduale.	!
0AAl;;	-men	0c#Xl;;	-men	0A]	.
*	*Xij	*	*Xij	*	*
==	==	==	==	==	==
*-	*-	*-	*-	*-	*-
!!!system-decoration: [g1]
!!!RDF**kern: > = above
!!!RDF**kern: < = below
!!!RDF**kern: l = terminal long
!!!AIN: 1 empty 1 tenor 1 vox
!!!ENC: Andrzej Kubiczek
!!!END: 2021-03-21
!!!ENC: Andrzej Kubiczek
!!!END: 2021-03-06
